icons/gear-17.svg

<svg width="16" height="17" viewBox="0 0 16 17" fill="none" xmlns="http://www.w3.org/2000/svg">
<path fill-rule="evenodd" clip-rule="evenodd" d="M7.5716 3.30991C7.71264 3.29765 7.85552 3.29138 8 3.29138C8.14448 3.29138 8.28736 3.29765 8.4284 3.30991C8.45502 3.31222 8.50949 3.3375 8.53096 3.41958L8.74776 4.24855C8.85772 4.66895 9.15963 4.97346 9.49572 5.13993C9.62585 5.20438 9.75133 5.27703 9.8714 5.3572C10.1839 5.56584 10.5989 5.67515 11.0182 5.56011L11.8454 5.33314C11.9271 5.31073 11.9763 5.34511 11.9917 5.36707C12.1556 5.60024 12.2994 5.84831 12.4209 6.10879C12.432 6.13268 12.4375 6.19232 12.3771 6.25198L11.7661 6.85582C11.4574 7.16079 11.3443 7.57394 11.3681 7.94827C11.3727 8.02031 11.375 8.09303 11.375 8.16638C11.375 8.23973 11.3727 8.31245 11.3681 8.3845C11.3443 8.75882 11.4574 9.17197 11.7661 9.47695L12.3771 10.0808C12.4375 10.1405 12.432 10.2001 12.4209 10.224C12.2994 10.4845 12.1556 10.7325 11.9917 10.9657C11.9763 10.9877 11.9271 11.022 11.8454 10.9997L11.0182 10.7726C10.5989 10.6576 10.1839 10.7669 9.8714 10.9756C9.75133 11.0558 9.62585 11.1284 9.49572 11.1929C9.15963 11.3593 8.85772 11.6638 8.74776 12.0842L8.53096 12.9132C8.50949 12.9953 8.45502 13.0205 8.4284 13.0229C8.28736 13.0351 8.14448 13.0414 8 13.0414C7.85552 13.0414 7.71264 13.0351 7.5716 13.0229C7.54498 13.0205 7.4905 12.9953 7.46904 12.9132L7.25222 12.0842C7.14227 11.6638 6.84037 11.3593 6.50429 11.1929C6.37416 11.1284 6.24872 11.0558 6.12865 10.9756C5.81619 10.7669 5.40111 10.6576 4.98183 10.7726L4.15459 10.9997C4.0729 11.022 4.02369 10.9877 4.00826 10.9657C3.84441 10.7325 3.70053 10.4845 3.57907 10.224C3.56793 10.2001 3.56246 10.1405 3.62283 10.0808L4.23399 9.4769C4.54263 9.17194 4.65575 8.75878 4.63193 8.38447C4.62735 8.31244 4.62502 8.23972 4.62502 8.16638C4.62502 8.09305 4.62735 8.02033 4.63193 7.9483C4.65575 7.57398 4.54263 7.16083 4.23399 6.85586L3.62283 6.25198C3.56246 6.19233 3.56793 6.13269 3.57907 6.10879C3.70053 5.84831 3.84441 5.60024 4.00827 5.36707C4.02369 5.34511 4.0729 5.31073 4.15459 5.33314L4.98183 5.56012C5.40111 5.67516 5.81619 5.56585 6.12865 5.35721C6.24872 5.27704 6.37416 5.2044 6.50429 5.13994C6.84036 4.97347 7.14227 4.66897 7.25222 4.24857L7.46904 3.41958C7.4905 3.3375 7.54498 3.31222 7.5716 3.30991ZM8 2.16638C7.82296 2.16638 7.64757 2.17407 7.47417 2.18914C6.91708 2.23757 6.50743 2.65016 6.38064 3.13492L6.16383 3.96391C6.15073 4.014 6.10465 4.08245 6.00495 4.13184C5.83124 4.21788 5.66394 4.31477 5.50394 4.42161C5.4117 4.48319 5.3295 4.48894 5.2795 4.47522L4.45226 4.24824C3.96983 4.11587 3.4087 4.2636 3.08781 4.72024C2.88626 5.00706 2.70912 5.31243 2.55948 5.63335C2.32325 6.13994 2.47612 6.70047 2.83211 7.05223L3.44327 7.6561C3.48013 7.69252 3.51623 7.76646 3.5092 7.87687C3.50311 7.97266 3.50002 8.0692 3.50002 8.16638C3.50002 8.26356 3.50311 8.3601 3.5092 8.45589C3.51623 8.5663 3.48013 8.64024 3.44327 8.67666L2.83211 9.28054C2.47612 9.63229 2.32325 10.1928 2.55948 10.6994C2.70912 11.0204 2.88626 11.3257 3.08781 11.6125C3.4087 12.0692 3.96983 12.2169 4.45226 12.0845L5.2795 11.8576C5.3295 11.8439 5.41171 11.8496 5.50394 11.9111C5.66394 12.018 5.83124 12.1149 6.00495 12.2009C6.10465 12.2503 6.15073 12.3188 6.16383 12.3689L6.38064 13.1978C6.50743 13.6826 6.91708 14.0952 7.47417 14.1437C7.64757 14.1587 7.82296 14.1664 8 14.1664C8.17704 14.1664 8.35243 14.1587 8.52583 14.1437C9.08291 14.0952 9.49257 13.6826 9.61932 13.1978L9.83615 12.3689C9.84928 12.3188 9.89533 12.2504 9.99508 12.2009C10.1688 12.1149 10.3361 12.018 10.4961 11.9111C10.5883 11.8496 10.6705 11.8439 10.7206 11.8576L11.5477 12.0845C12.0302 12.2169 12.5913 12.0692 12.9122 11.6126C13.1137 11.3257 13.2909 11.0204 13.4405 10.6994C13.6768 10.1928 13.5239 9.6323 13.1679 9.28054L12.5568 8.6767C12.5199 8.64028 12.4838 8.56634 12.4908 8.45593C12.4969 8.36012 12.5 8.26357 12.5 8.16638C12.5 8.06919 12.4969 7.97264 12.4908 7.87684C12.4838 7.76642 12.5199 7.69248 12.5568 7.65607L13.1679 7.05222C13.5239 6.70046 13.6768 6.13993 13.4405 5.63334C13.2909 5.31242 13.1137 5.00705 12.9122 4.72024C12.5913 4.26359 12.0302 4.11587 11.5477 4.24824L10.7206 4.4752C10.6705 4.48892 10.5883 4.48318 10.4961 4.4216C10.3361 4.31476 10.1688 4.21786 9.99508 4.13181C9.89533 4.08243 9.84928 4.01398 9.83615 3.96388L9.61932 3.13492C9.49257 2.65016 9.08291 2.23757 8.52583 2.18914C8.35243 2.17407 8.17704 2.16638 8 2.16638ZM9.125 8.16638C9.125 8.7877 8.62132 9.29138 8 9.29138C7.37868 9.29138 6.875 8.7877 6.875 8.16638C6.875 7.54506 7.37868 7.04138 8 7.04138C8.62132 7.04138 9.125 7.54506 9.125 8.16638ZM10.25 8.16638C10.25 9.40902 9.24264 10.4164 8 10.4164C6.75736 10.4164 5.75 9.40902 5.75 8.16638C5.75 6.92374 6.75736 5.91638 8 5.91638C9.24264 5.91638 10.25 6.92374 10.25 8.16638Z" fill="#272431"/>
</svg>

<svg xmlns="http://www.w3.org/2000/svg" width="16" height="17" viewBox="0 0 16 17"><path fill-rule="evenodd" d="M7.572 3.31a4.946 4.946 0 01.856 0c.027.002.081.027.103.11l.217.829c.11.42.412.724.748.89.13.065.255.138.375.218.313.209.728.318 1.147.203l.827-.227c.082-.022.131.012.147.034.164.233.307.481.429.742.011.024.017.083-.044.143l-.61.604a1.402 1.402 0 00-.399 1.092 3.422 3.422 0 010 .436c-.024.375.09.788.398 1.093l.611.604c.06.06.055.12.044.143-.122.26-.265.508-.43.742-.015.022-.064.056-.146.034l-.827-.227a1.402 1.402 0 00-1.147.203c-.12.08-.245.152-.375.217a1.4 1.4 0 00-.748.891l-.217.83c-.022.081-.076.107-.103.109a4.97 4.97 0 01-.856 0c-.027-.002-.082-.028-.103-.11l-.217-.829a1.403 1.403 0 00-.748-.891 3.374 3.374 0 01-.375-.217 1.402 1.402 0 00-1.147-.203L4.155 11c-.082.022-.131-.012-.147-.034a4.87 4.87 0 01-.429-.742c-.011-.024-.017-.084.044-.143l.611-.604a1.4 1.4 0 00.398-1.093 3.437 3.437 0 010-.436 1.402 1.402 0 00-.398-1.092l-.611-.604c-.06-.06-.055-.12-.044-.143a4.84 4.84 0 01.43-.742c.015-.022.064-.056.146-.034l.827.227c.42.115.834.006 1.147-.203.12-.08.245-.153.375-.217.336-.167.638-.471.748-.891l.217-.83c.021-.082.076-.107.103-.11zM8 2.166c-.177 0-.352.008-.526.023a1.253 1.253 0 00-1.093.946l-.217.829c-.013.05-.06.118-.159.168a4.494 4.494 0 00-.501.29c-.092.061-.174.067-.224.053l-.828-.227c-.482-.132-1.043.016-1.364.472a5.994 5.994 0 00-.529.913c-.236.507-.083 1.067.273 1.42l.611.603c.037.037.073.11.066.22a4.563 4.563 0 000 .58c.007.11-.029.184-.066.22l-.61.605c-.357.351-.51.912-.274 1.418.15.321.327.627.529.914.32.456.882.604 1.364.472l.827-.227c.05-.014.133-.008.225.053.16.107.327.204.501.29.1.05.146.118.159.168l.217.829c.126.485.536.897 1.093.946a6.1 6.1 0 001.052 0 1.253 1.253 0 001.093-.946l.217-.83c.013-.05.06-.118.16-.167.173-.086.34-.183.5-.29.092-.061.175-.067.225-.053l.827.226c.482.133 1.043-.015 1.364-.471.202-.287.379-.593.528-.914.237-.506.084-1.067-.272-1.418l-.611-.604c-.037-.037-.073-.11-.066-.221a4.557 4.557 0 000-.58c-.007-.11.029-.184.066-.22l.61-.604c.357-.352.51-.912.274-1.419a5.994 5.994 0 00-.529-.913c-.32-.456-.882-.604-1.364-.472l-.827.227c-.05.014-.133.008-.225-.053a4.495 4.495 0 00-.5-.29c-.1-.05-.147-.118-.16-.168l-.217-.83a1.253 1.253 0 00-1.093-.945A6.072 6.072 0 008 2.166zm1.125 6a1.125 1.125 0 11-2.25 0 1.125 1.125 0 012.25 0zm1.125 0a2.25 2.25 0 11-4.5 0 2.25 2.25 0 014.5 0z"/></svg>
